X: 42509
T: What, Daddy?
R: polka
M: 2/4
K: Ddorian
c>A AG|ED EG|c>d eg|ag eg|
c>A AG|ED EG|c>d eg|a2 a2:|
ag ge/g/|ag ge|c>d eg|ag eg|
ag ge/g/|ag ge|c>d eg|a2 a2:|

